X:2172
T:At first when my true love I seen 
S:T Kermode 
C:Traditional
O:Isle of Man
Z:Clague collection
B:Kiaull Vannin #172 
L:1/4
M:4/4 
Q:60 
K:D 
D2|F G A>G|E2 D D|D2 D>D|G G G2|E2 F G/G/|A2 D2| 
D D=c2|B G A/B/c|d2 B d|=c/B/ A/G/ A>G|E>F D D|D2|| 

